X:653
T:Saltn (XA 62)
R:Saltn
C:Tradicional
S:Msica Tradicional Asturiana, (C) Tello & Tito. Asturies, 2001.
S:http://pagina.de/MusTradAst <telloytito@asturies.org>
A:Asturies
Z:Mtodu de Xuacu Amieva 62
M:2/4
L:1/8
Q:1/4=200
K:C
G
|: ce cB|AG EG|FD EF|AG EG|ce cB|AG EG|FD B,D|[1 C3G :|[2 C4|
|: ~EC ~EC|FG FE|FD EC|DE DC|B,C DE|FG FE|DC B,D|C4 :|
|: G2 AB|c2 ec|B3 c|A2 AB|[1 G4 :|[2 G3 A|
|F2 FG|E4|A2 AB|G2 GA|F2 FG|E4|A2 AB|G2 GE|G2 AB|c3 G|
|: ce cB|AG EG|FD EF|AG EG|ce cB|AG EG|FD B,D|[1 C3G :|[2 C4|
|: EC EC|FG FE|FD EC|DE DC|B,C DE|FG FE|DC B,D|[1 C4 :|[2 C3 ~G|
|: EGEG|ECC~A|FAFA|FDD~G :|EGEG|ECC~A|FAFA|FDGG|
|: ~ECAA|~FDGG :|~ECAA|F D2 E|DCB,D|C3 E|
|: DCB,D|GECE|DCB,D|[1 C3 E :|[2 C3 G|
|: AB~AG|FEFE|DB,DD|EDCG|AB~AG|FEFE|DCB,D|[1 C3 G :|[2 C3 c|
|: ecec|~e3 c|ecec|f2 ec|efec|dedB|dBde|[1 c3 c :|[2 c3 G|
|: ce cB|AG EG|FD EF|AG EG|ce cB|AG EG|FD B,D|[1 C3G :|[2 C4|
|: ~EC ~EC|FG FE|FD EC|DE DC|B,C DE|FG FE|DC B,D|[1 C4 :|[2 C3 ~G|
|: EGEG|ECC~A|FAFA|FDD~G :|EGEG|ECC~A|FAFA|FDGG|~ECAA|
|: ~FDGG|~ECAA :|~F D2 E|DCB,D|C3 E|
|: DCB,D|GECE|DCB,D|[1 C3 E :|[2 C3 G|
|: ABAG|FEFE|DB,DD|EDCG|ABAG|FEFE|DCB,D|[1 C3 G :|[2 C4|
|.F2 ~FD|.E2 ~EC|.D2 ~DC|B,CDE|FGFD|EFEC|DEDB,|C4|
|f2 fd|e2 ec|d2 dc|Bcde|f2 fd|efec|dedB|c3 G|
|: ce cB|AG EG|FD EF|AG EG|ce cB|AG EG|FD B,D|[1 C3G :|[2 C4|
|: ~EC ~EC|FG FE|FD EC|DE DC|B,C DE|FG FE|DC B,D|[1 C4 :|[2 C3 ~G|
|: EGEG|ECC~A|FAFA|FDD~G :|EGEG|ECC~A|FAFA|FDGG|~ECAA|
|: ~FDGG|~ECAA :|~F D2 E|DCB,D|C3 E|
|: DCB,D|GECE|DCB,D|[1 C3 E :|[2 C3 G|
|: AB~AG|FEFE|DB,DD|EDCG|AB~AG|FEFE|DCB,D|C3 G :|
|: cccc|c e2 c|B2 AB|c3 G :|
|AAAA|A2 GG|AAAA|AGBA|G2 F2|E2 EF|G2 A2|G2 AB|c2 e2|c3 G|
|: ce cB|AG EG|FD EF|AG EG|ce cB|AG EG|FD B,D|[1 C3G :|[2 C4|
|: EC EC|FG FE|FD EC|DE DC|B,C DE|FG FE|DC B,D|C4 :|
|: EGEG|ECCA|FAFA|FDDG :|EGEG|ECCA|FAFA|FDGG|
|: ECAA|FDGG :|ECAA|F D2 E|DCB,D|C3 E|
|: DCB,D|GECE|DCB,D|[1 C3 E :|[2 C4|
